X:1
T:Guate Nacht
C:von Sepp Gmasz nach einem Totenlied aus Ollersdorf. 
B:"Das burgenlaendische Notenbiachl - Die fuenften und letzten 24", S. Gmasz, F. Pietsch, Eisenstadt 1995
Z:abc transcription Simon Wascher
F:http://simonwascher.info/
M:4/4
L:1/8
K:Gm
GA |\
BG cA\.iBG A2 | G4 z2 Bc | d2 ce dB c2 | B4 z2 de |
f2 dc B2 cd | ed cB A2 Bc | \.i2 BA G2 c2 | A3G F2 d2 |
d2 cB Ac BA | G6 |]
